X:1
T:Day's Yet to Come Waltz 
T:Arling Shaeffer (1859 - 1943)
%%score ( 1 2 3 )
L:1/8
Q:1/4=132
M:3/4
K:A
V:1 treble-8 nm="Classical Guitar"
V:2 treble-8 
V:3 treble-8 
V:1
S"^Tempo di Waltz""^ ≃ 126" e2 |{/!4!a} Pc'3 !4!a cA | [Aca]2 [Aca]2 [Aca]2 |{/a} Pb3"^C2" f dB | %4
 [Bdf]2 [Bdf]2 [Bdf]2 | g3 e dG | G2 [Gd]2 [Gdf]2 | f4 [A=cf]2 | [Ace]2 [B^df]2 [B=dg]e | %9
{/a} Pc'3 a cA | [Aca]2 [Aca]2 [Aca]2 |{/a} Pb3"^C2" f dB | [Bdf]2 [Bdf]2 [Bdf]2 | %13
 (3(e/f/)e/^d/e/ (fe)gf | dBGEDB, | A,!3!CEAce |"^₵2" !arpeggio!!4![EAca]4!fine! |:[K:E] e2 | %18
 !4![GBg]2 [GBg]3 e | BGEGBe |"^C2" [Acf]2 [Acf]3 c | A!4!F!3!CFAc | [FAd]2 [FAd]3 c | A2 d2 c2 | %24
 [GB]2 [^Ac]2 [=Ad]2 | [Be]2"^C2" [Acf]2 =g2 | [GBg]2 [GBg]3 e | BGEGBe |"^C2" [Acf]2 [Acf]3 c | %29
 A!4!F!3!CFAc | [^Aef]2 [Aef]3 c | [FAd]2 [Bg]2 [ABf]2 | [GBe]2 [GBe]2 [GBe]2 |1 %33
 !arpeggio![GBe]4 :|2 [G=de]4!D.C.! ||[K:D]"^Trio." !4![Ada]2 [Adf]3 d | A(DF)Adf | %37
 [GBe]2 [GBe]3 B | G(E,/G,/)B,EGB | [EGc]2 [Gce]3 [Gcg] | [Gce]6 | [df]2 [gb]2 [^e^g]2 | [fa]6 | %43
 [Ada]2 [Adf]3 d | A(DF)Adf | [GBe]2 [GBe]3 B | G(E,/G,/)B,EGB | [EGc]2 [EGB]2 [EGc]2 | %48
 [Gcf]2 [Gce]2 Bc | d2 A2 f2 |1 [Ad]6 :|2 [Ad]4!D.S.! |] %52
V:2
 x2 | A,6 | E2 !3!C2 A,2 | D6 | F2 B,2 F2 | E,6 | E4 B,2 | ^D4 D2 | A,2 B,2 E,2 | A,6 | E2 C2 A,2 | %11
 D6 | F2 B,2 F2 | E,6 | E,6 | x6 | A,4 |:[K:E] x2 | E,4 E,2 | E,6 | F,4 F,2 | F,6 | B,4 B,2 | %23
 D2 F2 E2 | E,2 ^A,2 =A,2 | !4!G,2 F,2 z2 | E,4 E,2 | E,6 | F,4 F,2 | F,6 | F,4 F,2 | B,4 D2 | %32
 E2 B,2 G,2 |1 E,4 :|2 E,4 ||[K:D] D4 D2 | x6 | E,4 G,2 | x6 | A,4 A,2 |xA,CEGc | D6 | DA,B,CDE | %43
 D4 D2 | x6 | E,4 G,2 | x6 | EA, EA, EA, | GA, GA, [EG]2 | D4 D2 |1 D6 :|2 D4 |] %52
V:3
 x2 | x6 | x6 | x6 | x6 | x6 | x6 | z2 [A=c]2 x2 | x6 | x6 | x6 | x6 | x6 | x6 | x6 | x6 | x4 |: %17
[K:E] x2 | x6 | x6 | x6 | x6 | x6 | x6 | x6 | x6 | x6 | x6 | x6 | x6 | x6 | x6 | x6 |1 x4 :|2 x4 || %35
[K:D] x6 | x6 | x6 | x6 | x6 | x6 | x6 | x6 | x6 | x6 | x6 | x6 | x6 | x6 | x6 |1 x6 :|2 x4 |] %52

